resources/haticons/SVG/deck.svg

<!-- Generated by IcoMoon.io -->
<svg version="1.1" xmlns="http://www.w3.org/2000/svg" width="24" height="24" viewBox="0 0 24 24">
<title>deck</title>
<path d="M19.078 15.984l0.797-3.984 1.922 0.375-0.797 4.359v5.25h-2.016v-3.984h-1.969v3.984h-2.016v-6h4.078zM4.125 12l0.797 3.984h4.078v6h-2.016v-3.984h-1.969v3.984h-2.016v-5.25l-0.797-4.359zM21.984 9h-9v12.984h-1.969v-12.984h-9l9.984-6.984z"></path>
</svg>

<svg xmlns="http://www.w3.org/2000/svg" width="24" height="24"><path d="M19.078 15.984L19.875 12l1.922.375L21 16.734v5.25h-2.016V18h-1.969v3.984h-2.016v-6h4.078zM4.125 12l.797 3.984H9v6H6.984V18H5.015v3.984H2.999v-5.25l-.797-4.359zm17.859-3h-9v12.984h-1.969V9h-9l9.984-6.984z"/></svg>
